X:32
T:RVW2/2/32 The Constant Farmer's Son
C:Mr. and Mrs. Ratford, Ingrave, Essex, 15 April 1904
L:1/8
Q:1/4=90
M:6/8
I:linebreak $
K:C
"^(a)""^(Editorial suggestion)  " (d2 e) | c2 B G2 G | (d2 e) f2 A | c2 B G2 F | G3- G2 G | 
w: Come *|all you pret- ty|fair * maids and|lis- ten to my|song * While|
B2 c d2 e |$ f3 g2 f | e2 d (cd) e | d3- d2 G | B2 c d2 e | f3 g2 f |$ e2 d (cd) e | 
w: I re- late a|sto- ry that|does to love * be-|long * 'Tis|of a bloo- ming|dam- sel walked|through the fields * so|
d3- d2 (e/d/) | c2 B G2 G | (d2 e) f2 A | c2 B G2 F | G3 |] 
w: gay * And *|there she met her|true * love who|un- to her did|say.|



